Glyphs/CapitalE.svg

<?xml version="1.0" encoding="UTF-8" standalone="no"?>
<!-- Created with Inkscape (http://www.inkscape.org/) -->

<svg
   width="1000"
   height="1000"
   viewBox="0 0 264.58333 264.58333"
   version="1.1"
   id="svg23789"
   inkscape:version="1.2.2 (732a01da63, 2022-12-09)"
   sodipodi:docname="CapitalE.svg"
   xmlns:inkscape="http://www.inkscape.org/namespaces/inkscape"
   xmlns:sodipodi="http://sodipodi.sourceforge.net/DTD/sodipodi-0.dtd"
   xmlns="http://www.w3.org/2000/svg"
   xmlns:svg="http://www.w3.org/2000/svg">
  <sodipodi:namedview
     id="namedview23791"
     pagecolor="#ffffff"
     bordercolor="#000000"
     borderopacity="0.25"
     inkscape:showpageshadow="2"
     inkscape:pageopacity="0.0"
     inkscape:pagecheckerboard="0"
     inkscape:deskcolor="#d1d1d1"
     inkscape:document-units="px"
     showgrid="false"
     inkscape:zoom="1.0544998"
     inkscape:cx="176.38695"
     inkscape:cy="340.44578"
     inkscape:window-width="1920"
     inkscape:window-height="1017"
     inkscape:window-x="-8"
     inkscape:window-y="-8"
     inkscape:window-maximized="1"
     inkscape:current-layer="layer1"
     showguides="true">
    <sodipodi:guide
       position="0,79.374999"
       orientation="0,1"
       id="guide4404"
       inkscape:locked="false"
       inkscape:label=""
       inkscape:color="rgb(0,134,229)" />
    <sodipodi:guide
       position="0,52.916666"
       orientation="0,1"
       id="guide4406"
       inkscape:locked="false"
       inkscape:label=""
       inkscape:color="rgb(0,134,229)" />
    <sodipodi:guide
       position="13.229166,79.374999"
       orientation="-1,0"
       id="guide4408"
       inkscape:locked="false"
       inkscape:label=""
       inkscape:color="rgb(0,134,229)" />
    <sodipodi:guide
       position="145.52085,79.374994"
       orientation="-1,0"
       id="guide4410"
       inkscape:label=""
       inkscape:locked="false"
       inkscape:color="rgb(0,134,229)" />
    <sodipodi:guide
       position="158.75,79.374994"
       orientation="-1,0"
       id="guide4412"
       inkscape:label=""
       inkscape:locked="false"
       inkscape:color="rgb(0,134,229)" />
  </sodipodi:namedview>
  <defs
     id="defs23786">
    <clipPath
       clipPathUnits="userSpaceOnUse"
       id="clipPath946">
      <path
         d="M 0,0 H 6000 V 3375 H 0 Z"
         clip-rule="evenodd"
         id="path944" />
    </clipPath>
    <clipPath
       clipPathUnits="userSpaceOnUse"
       id="clipPath920">
      <path
         d="m 3536.8484,254.5144 h 443.75 v 443.75 h -443.75 z"
         clip-rule="evenodd"
         id="path918" />
    </clipPath>
  </defs>
  <g
     inkscape:label="Layer 1"
     inkscape:groupmode="layer"
     id="layer1"
     transform="translate(-60.343621,-136.98877)">
    <path
       id="rect1982"
       style="color:#000000;fill:#000000;-inkscape-stroke:none"
       d="M 73.574338 189.90647 L 73.574338 191.88258 L 73.574338 252.62512 L 73.572787 252.62512 L 73.572787 253.55685 L 73.574338 253.55685 L 73.574338 322.19555 L 205.86342 322.19555 L 205.86342 189.90647 L 73.574338 189.90647 z M 77.523451 193.85765 L 201.91224 193.85765 L 201.91224 318.24592 L 77.523451 318.24592 L 77.523451 253.55685 L 128.54824 253.55685 L 128.54824 252.62512 L 77.523451 252.62512 L 77.523451 193.85765 z " />
    <rect
       style="fill:#000000;stroke-width:3.95226"
       id="rect8387"
       width="54.975445"
       height="3.9502258"
       x="73.572784"
       y="251.11588" />
  </g>
</svg>

<?xml version="1.0" encoding="UTF-8" standalone="no"?>
<!-- Created with Inkscape (http://www.inkscape.org/) -->

<svg
   width="1000"
   height="1000"
   viewBox="0 0 264.58333 264.58333"
   version="1.1"
   id="svg23789"
   inkscape:version="1.2.2 (732a01da63, 2022-12-09)"
   sodipodi:docname="CapitalE.svg"
   xmlns:inkscape="http://www.inkscape.org/namespaces/inkscape"
   xmlns:sodipodi="http://sodipodi.sourceforge.net/DTD/sodipodi-0.dtd"
   xmlns="http://www.w3.org/2000/svg"
   xmlns:svg="http://www.w3.org/2000/svg">
  <sodipodi:namedview
     id="namedview23791"
     pagecolor="#ffffff"
     bordercolor="#000000"
     borderopacity="0.25"
     inkscape:showpageshadow="2"
     inkscape:pageopacity="0.0"
     inkscape:pagecheckerboard="0"
     inkscape:deskcolor="#d1d1d1"
     inkscape:document-units="px"
     showgrid="false"
     inkscape:zoom="0.74564396"
     inkscape:cx="73.761746"
     inkscape:cy="460.00507"
     inkscape:window-width="1920"
     inkscape:window-height="1017"
     inkscape:window-x="-8"
     inkscape:window-y="-8"
     inkscape:window-maximized="1"
     inkscape:current-layer="layer1"
     showguides="true">
    <sodipodi:guide
       position="0,79.374999"
       orientation="0,1"
       id="guide4404"
       inkscape:locked="false"
       inkscape:label=""
       inkscape:color="rgb(0,134,229)" />
    <sodipodi:guide
       position="0,52.916666"
       orientation="0,1"
       id="guide4406"
       inkscape:locked="false"
       inkscape:label=""
       inkscape:color="rgb(0,134,229)" />
    <sodipodi:guide
       position="13.229166,79.374999"
       orientation="-1,0"
       id="guide4408"
       inkscape:locked="false"
       inkscape:label=""
       inkscape:color="rgb(0,134,229)" />
    <sodipodi:guide
       position="145.52083,79.374999"
       orientation="-1,0"
       id="guide4410"
       inkscape:label=""
       inkscape:locked="false"
       inkscape:color="rgb(0,134,229)" />
    <sodipodi:guide
       position="158.75,79.374999"
       orientation="-1,0"
       id="guide4412"
       inkscape:label=""
       inkscape:locked="false"
       inkscape:color="rgb(0,134,229)" />
  </sodipodi:namedview>
  <defs
     id="defs23786">
    <clipPath
       clipPathUnits="userSpaceOnUse"
       id="clipPath946">
      <path
         d="M 0,0 H 6000 V 3375 H 0 Z"
         clip-rule="evenodd"
         id="path944" />
    </clipPath>
    <clipPath
       clipPathUnits="userSpaceOnUse"
       id="clipPath920">
      <path
         d="m 3536.8484,254.5144 h 443.75 v 443.75 h -443.75 z"
         clip-rule="evenodd"
         id="path918" />
    </clipPath>
  </defs>
  <g
     inkscape:label="Layer 1"
     inkscape:groupmode="layer"
     id="layer1"
     transform="translate(-60.343621,-136.98877)">
    <path
       id="rect1982"
       style="color:#000000;fill:#000000;stroke-width:1.00001;-inkscape-stroke:none"
       d="m 73.574338,189.90647 v 1.97615 60.74373 h -0.0016 v 0.93174 h 0.0016 v 68.64004 H 205.8644 V 189.90647 Z m 3.949142,3.95126 h 124.38971 v 124.3907 H 77.52348 v -64.69034 h 51.02517 v -0.93174 H 77.52348 Z" />
    <rect
       style="fill:#000000;stroke-width:3.95226"
       id="rect8387"
       width="54.975445"
       height="3.9502258"
       x="73.572784"
       y="251.11588" />
  </g>
</svg>
